src/22/actions/mail-send.svg

<svg xmlns="http://www.w3.org/2000/svg" viewBox="0 0 22 22">
  <defs id="defs3051">
    <style type="text/css" id="current-color-scheme">
      .ColorScheme-Text {
        color:#5d656b;
      }
      </style>
  </defs>
 <path 
    style="fill:currentColor;fill-opacity:1;stroke:none" 
    d="M 6 3 L 6 4 L 19.537109 4 L 12 11.537109 L 6 5.5371094 L 6 6.9511719 L 9.0234375 9.9765625 L 6 13 L 6 14.414062 L 9.7304688 10.683594 L 12 12.951172 L 14.269531 10.683594 L 20.537109 16.951172 L 21 17.414062 L 21 18 L 6 18 L 6 19 L 22 19 L 22 18.414062 L 22 18 L 22 17 L 22 3 L 21.951172 3 L 21 3 L 6 3 z M 20.951172 4 L 21 4 L 21 16 L 14.976562 9.9765625 L 20.951172 4 z M 0 9 L 0 10 L 5 10 L 5 9 L 0 9 z M 2 12 L 2 13 L 5 13 L 5 12 L 2 12 z "
    class="ColorScheme-Text"
    />  
</svg>

<svg xmlns="http://www.w3.org/2000/svg" viewBox="0 0 22 22"><path d="M6 3v1h13.537L12 11.537l-6-6v1.414l3.023 3.026L6 13v1.414l3.73-3.73L12 12.95l2.27-2.267 6.267 6.267.463.463V18H6v1h16V3H6zm14.951 1H21v12l-6.023-6.023L20.95 4zM0 9v1h5V9H0zm2 3v1h3v-1H2z" fill="currentColor" color="#5d656b"/></svg>
